pt_BR/svg/pagbank.svg

<svg width="125" height="35" viewBox="0 0 125 35" fill="none" xmlns="http://www.w3.org/2000/svg">
<path d="M47.45 18.661H44.818L43.746 23.744H40.744L43.665 10.027H49.322C51.628 10.027 53.202 11.639 53.202 13.492C53.202 17.174 50.269 18.661 47.45 18.661ZM47.82 12.035H46.217L45.227 16.645H46.258C48.275 16.645 50.124 16.193 50.124 13.785C50.138 12.69 48.994 12.029 47.821 12.029L47.82 12.035ZM63.19 20.076C62.9081 21.2779 62.743 22.5043 62.697 23.738H59.794C59.836 23.223 60.02 22.257 60.187 21.31C59.447 22.647 58.237 23.964 56.216 23.964C54.138 23.964 53.088 22.571 53.088 20.672C53.088 16.042 57.224 13.182 61.165 13.182C62.357 13.182 63.9 13.389 64.621 13.656L63.19 20.076ZM60.619 15.096C58.252 15.096 56.093 17.603 56.093 20.363C56.093 21.29 56.422 22.051 57.486 22.051C58.926 22.051 60.304 20.076 60.881 17.594L61.438 15.207C61.1738 15.1202 60.8969 15.0826 60.619 15.096ZM74.61 22.36C73.682 26.515 72.16 28.41 67.593 28.41C66.377 28.41 65.169 28.215 64.014 27.833L64.571 25.797C65.4854 26.2733 66.5042 26.5136 67.535 26.496C70.105 26.496 71.095 25.139 71.568 23.206L71.896 21.847C70.907 23.165 69.88 23.741 68.172 23.741C66.052 23.741 65.025 22.424 65.025 20.677C65.025 16.029 69.261 13.21 73.214 13.21C74.343 13.2132 75.4666 13.3648 76.556 13.661L74.61 22.36ZM72.593 15.118C70.225 15.118 68.025 17.547 68.025 20.427C68.025 21.354 68.353 22.031 69.362 22.031C71.298 22.031 72.367 19.563 72.799 17.734L73.395 15.244C73.1358 15.1605 72.8654 15.117 72.593 15.115V15.118ZM85.575 16.639C87.056 16.968 88.003 17.915 88.003 19.355C88.003 22.895 84.627 23.738 81.789 23.738H76.706L79.628 10.027H85.123C86.953 10.027 88.928 10.862 88.928 12.907C88.928 14.951 87.572 16.268 85.575 16.639ZM82.202 17.586H80.904L79.979 21.906H81.399C83.126 21.906 84.917 21.371 84.917 19.252C84.917 17.825 83.313 17.586 82.202 17.586ZM83.806 11.846H82.099L81.263 15.776H82.725C84.33 15.776 85.892 15.157 85.892 13.327C85.903 12.174 84.752 11.846 83.806 11.846ZM99.34 20.076C99.0576 21.2779 98.8922 22.5043 98.846 23.738H95.944C95.986 23.223 96.169 22.257 96.334 21.31C95.596 22.647 94.384 23.964 92.364 23.964C90.287 23.964 89.237 22.571 89.237 20.672C89.237 16.042 93.373 13.182 97.314 13.182C98.506 13.182 100.049 13.389 100.771 13.656L99.34 20.076ZM96.768 15.096C94.401 15.096 92.242 17.603 92.242 20.363C92.242 21.29 92.571 22.051 93.635 22.051C95.075 22.051 96.454 20.076 97.03 17.594L97.587 15.207C97.3231 15.1203 97.0455 15.0827 96.768 15.096ZM111.725 16.906L110.299 23.738H107.458L108.756 17.525C108.848 17.175 108.903 16.816 108.92 16.455C108.92 15.672 108.55 15.115 107.561 15.115C106.018 15.115 105.277 16.495 104.99 17.834L103.734 23.738H100.863L102.548 15.714C102.719 14.953 102.85 14.184 102.94 13.408H105.614L105.305 15.241C106.294 13.862 107.322 13.205 109.029 13.205C110.736 13.205 111.848 14.04 111.848 15.734C111.845 16.1277 111.804 16.5202 111.725 16.906ZM119.173 18.104L122.423 23.741H119.173L116.373 18.327L115.259 23.738H112.405L115.532 8.913H118.376L116.546 17.675L120.969 13.416H124.311L119.173 18.104ZM24.097 33.67C32.987 29.986 37.209 19.794 33.527 10.903C29.844 2.01299 19.652 -2.21 10.761 1.473C1.87004 5.156 -2.35196 15.348 1.33004 24.24C5.01304 33.13 15.206 37.353 24.097 33.67Z" fill="black"/>
<path d="M17.4279 29.699C25.4299 29.699 31.9179 23.212 31.9179 15.21C31.9179 7.20801 25.4299 0.721008 17.4269 0.721008C9.42794 0.721008 2.93994 7.20801 2.93994 15.211C2.93994 23.212 9.42694 29.699 17.4289 29.699H17.4279Z" fill="#DDE05B"/>
<path d="M17.4279 30.08C15.4529 30.08 13.4971 29.691 11.6724 28.9351C9.84764 28.1793 8.18965 27.0715 6.79305 25.6749C5.39646 24.2783 4.28862 22.6203 3.53279 20.7956C2.77696 18.9708 2.38794 17.0151 2.38794 15.04C2.38794 13.0649 2.77696 11.1092 3.53279 9.28444C4.28862 7.4597 5.39646 5.80171 6.79305 4.40511C8.18965 3.00852 9.84764 1.90068 11.6724 1.14485C13.4971 0.389021 15.4529 -2.9431e-08 17.4279 0C21.4168 5.94386e-08 25.2423 1.58457 28.0628 4.40511C30.8834 7.22566 32.4679 11.0511 32.4679 15.04C32.4679 19.0289 30.8834 22.8543 28.0628 25.6749C25.2423 28.4954 21.4168 30.08 17.4279 30.08ZM17.4279 1.114C14.6688 1.114 11.9717 1.93243 9.67788 3.46572C7.38404 4.99901 5.59656 7.17826 4.54161 9.72773C3.48666 12.2772 3.21166 15.0823 3.75139 17.7881C4.29112 20.4939 5.62134 22.9788 7.57372 24.9284C9.52611 26.878 12.0129 28.2046 14.7195 28.7405C17.4261 29.2763 20.2308 28.9973 22.7787 27.9387C25.3267 26.8801 27.5033 25.0895 29.0333 22.7934C30.5633 20.4974 31.3779 17.7991 31.3739 15.04C31.3713 11.3421 29.9015 7.79629 27.2873 5.1809C24.673 2.56552 21.1279 1.09424 17.4299 1.09V1.115L17.4279 1.114Z" fill="black"/>
<path d="M15.0031 33.871C21.6451 33.871 27.0291 28.487 27.0291 21.844C27.0291 15.202 21.6451 9.81799 15.0031 9.81799C8.36007 9.81799 2.97607 15.202 2.97607 21.845C2.97607 28.487 8.36007 33.871 15.0031 33.871Z" fill="#9ED5D6"/>
<path d="M15.0281 34.42C12.4274 34.4246 9.88921 33.6226 7.76332 32.1244C5.63744 30.6263 4.02843 28.5058 3.15798 26.0551C2.28754 23.6044 2.19849 20.944 2.90311 18.4406C3.60773 15.9371 5.07134 13.7138 7.0923 12.0768C9.11325 10.4399 11.5921 9.46999 14.1873 9.30067C16.7825 9.13135 19.3663 9.77098 21.5829 11.1314C23.7994 12.4919 25.5395 14.5062 26.5634 16.8969C27.5873 19.2875 27.8447 21.9369 27.3001 24.48C26.6977 27.2864 25.1537 29.8025 22.9244 31.6106C20.6951 33.4186 17.9144 34.41 15.0441 34.42H15.0281ZM15.0001 10.36C13.483 10.346 11.9782 10.6328 10.5727 11.2037C9.16707 11.7747 7.88854 12.6184 6.81092 13.6863C5.7333 14.7542 4.87796 16.025 4.2943 17.4254C3.71064 18.8258 3.41023 20.3279 3.41043 21.845C3.41062 23.3621 3.71143 24.8641 4.29545 26.2643C4.87948 27.6645 5.73515 28.9351 6.81305 30.0028C7.89095 31.0704 9.1697 31.9138 10.5754 32.4844C11.9812 33.0549 13.486 33.3413 15.0031 33.327C18.0223 33.2867 20.9042 32.059 23.0249 29.9096C25.1456 27.7602 26.3344 24.862 26.334 21.8425C26.3336 18.823 25.1441 15.9251 23.0228 13.7763C20.9015 11.6274 18.0193 10.4004 15.0001 10.361V10.36Z" fill="black"/>
<path d="M25.5079 29.813C26.4951 29.8245 27.4747 29.6399 28.3899 29.27C29.3052 28.9002 30.138 28.3524 30.8401 27.6584C31.5422 26.9644 32.0996 26.138 32.48 25.227C32.8604 24.3161 33.0563 23.3387 33.0563 22.3515C33.0563 21.3643 32.8604 20.387 32.48 19.476C32.0996 18.5651 31.5422 17.7386 30.8401 17.0446C30.138 16.3506 29.3052 15.8029 28.3899 15.433C27.4747 15.0632 26.4951 14.8786 25.5079 14.89C23.544 14.9128 21.6682 15.7089 20.2874 17.1057C18.9067 18.5026 18.1323 20.3874 18.1323 22.3515C18.1323 24.3156 18.9067 26.2005 20.2874 27.5973C21.6682 28.9942 23.544 29.7903 25.5079 29.813Z" fill="#FFE72D"/>
<path d="M25.508 30.359C23.9244 30.3588 22.3765 29.889 21.0599 29.0091C19.7433 28.1292 18.7172 26.8787 18.1113 25.4157C17.5054 23.9526 17.3469 22.3428 17.6559 20.7896C17.9648 19.2365 18.7274 17.8099 19.8472 16.6902C20.9669 15.5704 22.3935 14.8079 23.9466 14.4989C25.4997 14.1899 27.1096 14.3484 28.5726 14.9543C30.0357 15.5602 31.2862 16.5863 32.1661 17.9029C33.046 19.2195 33.5158 20.7674 33.516 22.351C33.5138 24.4742 32.6695 26.5098 31.1681 28.0111C29.6668 29.5125 27.6312 30.3569 25.508 30.359ZM25.508 15.436C24.5995 15.4356 23.6998 15.6143 22.8604 15.9616C22.0209 16.309 21.2581 16.8183 20.6155 17.4604C19.3176 18.7574 18.5881 20.5167 18.5875 22.3515C18.5868 24.1862 19.315 25.9461 20.6119 27.244C21.9088 28.5418 23.6682 29.2713 25.503 29.272C27.3377 29.2726 29.0976 28.5444 30.3955 27.2475C31.6933 25.9506 32.4228 24.1912 32.4235 22.3565C32.4241 20.5217 31.6959 18.7618 30.399 17.464C29.1021 16.1661 27.3427 15.4366 25.508 15.436Z" fill="black"/>
</svg>

<svg xmlns="http://www.w3.org/2000/svg" width="150" height="35" fill="none"><path fill="#000" d="M47.45 18.661h-2.632l-1.072 5.083h-3.002l2.921-13.717h5.657c2.306 0 3.88 1.612 3.88 3.465 0 3.682-2.933 5.169-5.752 5.169Zm.37-6.626h-1.603l-.99 4.61h1.031c2.017 0 3.866-.452 3.866-2.86.014-1.095-1.13-1.756-2.303-1.756v.006Zm15.37 8.041a19.155 19.155 0 0 0-.493 3.662h-2.903c.042-.515.226-1.481.393-2.428-.74 1.337-1.95 2.654-3.971 2.654-2.078 0-3.128-1.393-3.128-3.292 0-4.63 4.136-7.49 8.077-7.49 1.192 0 2.735.207 3.456.474l-1.431 6.42Zm-2.571-4.98c-2.367 0-4.526 2.507-4.526 5.267 0 .927.329 1.688 1.393 1.688 1.44 0 2.818-1.975 3.395-4.457l.557-2.387a2.275 2.275 0 0 0-.82-.111ZM74.61 22.36c-.928 4.155-2.45 6.05-7.017 6.05-1.216 0-2.424-.195-3.579-.577l.557-2.036a6.186 6.186 0 0 0 2.964.699c2.57 0 3.56-1.357 4.033-3.29l.328-1.359c-.989 1.318-2.016 1.894-3.724 1.894-2.12 0-3.147-1.317-3.147-3.064 0-4.648 4.236-7.467 8.189-7.467a12.88 12.88 0 0 1 3.342.451l-1.947 8.699Zm-2.017-7.242c-2.368 0-4.568 2.429-4.568 5.309 0 .927.328 1.604 1.337 1.604 1.936 0 3.005-2.468 3.437-4.297l.596-2.49a2.68 2.68 0 0 0-.802-.129v.003Zm12.982 1.521c1.481.329 2.428 1.276 2.428 2.716 0 3.54-3.376 4.383-6.214 4.383h-5.083l2.922-13.711h5.495c1.83 0 3.805.835 3.805 2.88 0 2.044-1.356 3.361-3.353 3.732Zm-3.373.947h-1.298l-.925 4.32h1.42c1.727 0 3.518-.535 3.518-2.654 0-1.427-1.604-1.666-2.715-1.666Zm1.604-5.74h-1.707l-.836 3.93h1.462c1.605 0 3.167-.619 3.167-2.449.011-1.153-1.14-1.481-2.086-1.481Zm15.534 8.23a19.139 19.139 0 0 0-.494 3.662h-2.902c.042-.515.225-1.481.39-2.428-.738 1.337-1.95 2.654-3.97 2.654-2.077 0-3.127-1.393-3.127-3.292 0-4.63 4.136-7.49 8.077-7.49 1.192 0 2.735.207 3.457.474l-1.432 6.42Zm-2.572-4.98c-2.367 0-4.526 2.507-4.526 5.267 0 .927.329 1.688 1.393 1.688 1.44 0 2.819-1.975 3.395-4.457l.557-2.387a2.275 2.275 0 0 0-.819-.111Zm14.957 1.81-1.426 6.832h-2.841l1.298-6.213c.092-.35.147-.709.164-1.07 0-.783-.37-1.34-1.359-1.34-1.543 0-2.284 1.38-2.571 2.719l-1.256 5.904h-2.871l1.685-8.024c.171-.761.302-1.53.392-2.306h2.674l-.309 1.833c.989-1.379 2.017-2.036 3.724-2.036 1.707 0 2.819.835 2.819 2.529a6.079 6.079 0 0 1-.123 1.172Zm7.448 1.198 3.25 5.637h-3.25l-2.8-5.414-1.114 5.411h-2.854l3.127-14.825h2.844l-1.83 8.762 4.423-4.259h3.342l-5.138 4.688ZM24.097 33.67c8.89-3.684 13.112-13.876 9.43-22.767-3.683-8.89-13.875-13.113-22.766-9.43C1.87 5.156-2.352 15.348 1.33 24.24c3.683 8.89 13.875 13.113 22.766 9.43Z"/><path fill="#DDE05B" d="M17.428 29.699c8.002 0 14.49-6.487 14.49-14.489S25.43.721 17.427.721C9.428.721 2.94 7.208 2.94 15.211c0 8.001 6.487 14.488 14.489 14.488Z"/><path fill="#000" d="M17.428 30.08a15.04 15.04 0 1 1 0-30.08 15.04 15.04 0 0 1 0 30.08Zm0-28.966A13.946 13.946 0 1 0 31.374 15.04 13.96 13.96 0 0 0 17.43 1.09v.025Z"/><path fill="#9ED5D6" d="M15.003 33.871c6.642 0 12.026-5.384 12.026-12.027 0-6.642-5.384-12.026-12.026-12.026-6.643 0-12.027 5.384-12.027 12.027 0 6.642 5.384 12.026 12.027 12.026Z"/><path fill="#000" d="M15.028 34.42A12.573 12.573 0 1 1 27.3 24.48a12.58 12.58 0 0 1-12.256 9.94h-.016ZM15 10.36a11.484 11.484 0 1 0 .003 22.967A11.484 11.484 0 0 0 15 10.361Z"/><path fill="#FFE72D" d="M25.508 29.813a7.462 7.462 0 1 0 0-14.923 7.462 7.462 0 0 0 0 14.923Z"/><path fill="#000" d="M25.508 30.359a8.007 8.007 0 1 1 8.008-8.008 8.016 8.016 0 0 1-8.008 8.008Zm0-14.923a6.918 6.918 0 1 0-.005 13.836 6.918 6.918 0 0 0 .005-13.836Z"/></svg>
